!!!Genre:	Gas-nign
!!!Mode:	Freygish
!!!Edition:	2015
!!!Listening/dance:	listening
!!!Free rhythm?:	No
!!!Secondary Modes:	17-22
!!!:	*F:
!!!One_Mode:	no
**kern
*I"P1
*clefG2
*k[b-e-a-]
*G:frey
*M4/4
*>A
=1
12aa-L
12gg
12ffJ
12ggL
12ff
12ee-J
12ffL
12ee-
12ddJ
12ee-L
12dd
12ccJ
=2
12ddL
12cc
12bnJ
12ccL
12b
12a-J
4.bt
8a-
=3
8gL
8a-
8bnX
8ccJ
12ddL
12cc
12bnJ
12a-L
12g
12fJ
=4
2g
2gg
=5
(12aa-L
12gg
12ffJ)
(12ggL
12ff
12ee-J)
12ffL
12ee-
12ddJ
12ee-L
12dd
12ccJ
=6
12ddL
12cc
12bnJ
12ccL
12b
12a-J
4.b
8a-
=7
8gL
8a-
8bn
8ccJ
12ddL
12cc
12bJ
12a-L
12g
12fJ
=8
2g
2G
=9:|!|:
*>B
(8qg/
8.bnL)
(16gJk
8.ccL)
(16gJk
4.dd)
8ff
=10
(12ffL
12ee-
12ddJ)
(12ee-L
12dd
12ccJ)
2cc
=11
(12aa-L
12gg
12ffJ)
(12ee-L
12dd
12ccJ)
(12ffL
12ee-
12ddJ)
(12ccL
12bn
12a-J)
=12
(12ddL
12cc
12bnJ)
(12a-L
12g
12fJ)
(8gL
8a-)
8b
(8qdd/
8ccJ)
=13
(8qg/
8.bnL)
(16gJk
8.ccL
(16gJk
4.dd)
8ff
=14
(12ffL
12ee-
12ddJ)
(12ee-L
12dd
12ccJ)
2cc
=15
12aa-L
12gg
12ffJ
12ee-L
12dd
12ccJ
(12ffL
12ee-
12ddJ
12ccL
12bn
12a-J)
=16
(12ddL
12cc
12bnJ
12a-L
12g
12fJ)
4.g
8g
*>bM
*F
=17:|!|:
*>C
*k[b-]
8.ccL
16bnJk
8ccL
8bJ
8.ccL
16aJk
8.fL
16aJk
=18
8.ccL
16bnJk
8.ccL
16bJk
4cc
12cL
12f
12aJ
=19
8.ccL
16bnJk
8.ccL
16bJk
8.ccL
16aJk
8.fL
16aJk
=20
8.ccL
16bnXJk
8.gL
16bnJk
4a
12cL
12f
12aJ
=21
8.ccL
16bnJk
8.ccL
16bJk
8.ccL
16aJk
8.fL
16aJk
=22
8.ccL
16bnJk
8.ddL
16bJk
2cc
*>eM
*G:frey
=23
2bnt
8a-XL
8gJ
(16a-LL
16gJ
8fJ)
=24
2g
4gg
12cL
12f
12anJ
=25:|!
2g
2gg
==
*-
